public/theme/icons/inactive-crustaceans.svg

<svg width="33" height="34" viewBox="0 0 33 34" fill="none" xmlns="http://www.w3.org/2000/svg">
<circle cx="15" cy="15" r="15" fill="#E1E1E1"/>
<path fill-rule="evenodd" clip-rule="evenodd" d="M29.9675 15.995C29.9891 15.6661 30 15.3343 30 15C30 6.71573 23.2843 0 15 0C6.71573 0 0 6.71573 0 15C0 23.2843 6.71573 30 15 30C16.2186 30 17.4032 29.8547 18.5375 29.5805L12.0795 23.1225L12.7703 21.5408L11.1042 19.8748L11.5051 19.4738L9.92926 17.8979L10.4605 17.3667L9.11914 16.0254L12 14.5L13.5 14L13.6034 12.6385L9.5 8.5L11.1687 6.0671L11.7976 6.69599L11.9936 6.5L13 6L14.1641 6.5L15.701 8.03693L16.5 7.00002L17 6.5L18.5504 6.17931L20.1216 7.75055L20.6051 6.63264L29.9675 15.995Z" fill="#E1E1E1"/>
<g filter="url(#filter0_d_105_29446)">
<path fill-rule="evenodd" clip-rule="evenodd" d="M15.182 9.33946C15.2458 9.33388 15.31 9.33389 15.3738 9.33946C15.4729 8.76275 15.5791 8.26322 15.7055 7.84041C15.8526 7.34839 16.0316 6.94448 16.2708 6.64076C16.7692 6.00779 17.4638 5.88545 18.4203 6.0928C18.5448 6.11978 18.627 6.2602 18.6041 6.40644C18.5811 6.55269 18.4616 6.64938 18.3372 6.6224C17.4424 6.42843 16.9476 6.57415 16.6071 7.00655C16.4268 7.23551 16.2739 7.56362 16.1378 8.01892C16.0188 8.41677 15.9161 8.89972 15.8175 9.47801C15.9841 9.57375 16.129 9.71766 16.2303 9.90973C16.2619 9.96979 16.2878 10.0327 16.3077 10.0976L16.7652 11.5965C16.7908 11.6805 16.8682 11.7383 16.956 11.7364C17.661 11.7211 17.9853 11.5793 18.1771 11.3804C18.2753 11.2786 18.3597 11.1419 18.433 10.9529C18.4676 10.8636 18.4256 10.7651 18.3457 10.7124C17.7107 10.2935 17.2779 9.45991 17.2779 8.5C17.2779 8.00702 17.6858 8.18479 18.1558 8.38958C18.9796 8.74855 19.9939 9.19056 19.3356 6.24853C19.3073 6.12232 19.4029 5.99963 19.5306 6.01977C20.5159 6.17508 21.2779 7.22631 21.2779 8.5C21.2779 9.73629 20.56 10.763 19.6168 10.9642C19.5389 10.9809 19.4737 11.0362 19.4491 11.112C19.3303 11.4795 19.1641 11.7983 18.918 12.0535C18.5283 12.4576 18.0047 12.6405 17.3652 12.6998C17.2349 12.7119 17.1445 12.8391 17.1827 12.9642L17.4891 13.968C17.5005 14.0054 17.5108 14.0428 17.5199 14.0802L18.4712 14.0903C19.052 14.0964 19.6215 14.2513 20.1254 14.54L21.6101 15.3907C21.8018 15.5006 21.8682 15.745 21.7583 15.9367C21.6485 16.1283 21.4041 16.1947 21.2124 16.0849L19.7277 15.2342C19.3423 15.0134 18.9068 14.8949 18.4627 14.8902L17.5506 14.8805C17.4934 15.2222 17.3478 15.54 17.1353 15.8047C17.081 15.8724 17.0699 15.9655 17.1058 16.0437L17.8279 16.0382C18.4918 16.0331 19.1427 16.2226 19.7002 16.5831L20.8005 17.2947C20.986 17.4147 21.0391 17.6624 20.9191 17.8478C20.7992 18.0333 20.5515 18.0865 20.366 17.9665L19.2658 17.2549C18.8394 16.9792 18.3417 16.8343 17.834 16.8382L17.3407 16.8419C17.3566 17.0515 17.3392 17.2673 17.2839 17.4828C17.2753 17.5162 17.2746 17.5512 17.2819 17.5849C17.3163 17.7456 17.3311 17.9119 17.3241 18.0806C17.7825 18.162 18.2216 18.3372 18.613 18.5976L19.6306 19.2749C19.8146 19.3973 19.8644 19.6456 19.742 19.8295C19.6196 20.0134 19.3713 20.0633 19.1874 19.9409L18.1697 19.2636C17.8562 19.055 17.5026 18.9179 17.1339 18.8598L16.7441 19.8344C16.7029 19.9375 16.754 20.0538 16.8528 20.1045C17.6169 20.4971 18.2018 21.3941 18.6056 22.2285C18.9469 22.9338 18.2439 23.5864 17.5164 23.2954C17.0888 23.1244 16.6035 23.296 16.2513 23.5927C15.9953 23.8083 15.6602 24 15.2779 24C14.8955 24 14.5604 23.8083 14.3045 23.5927C13.9522 23.296 13.4669 23.1244 13.0393 23.2954C12.3118 23.5864 11.6088 22.9338 11.9501 22.2285C12.3539 21.3941 12.9389 20.4971 13.7029 20.1045C13.8017 20.0538 13.8529 19.9375 13.8116 19.8344L13.4412 18.9083C13.1581 18.9804 12.8875 19.1 12.6416 19.2636L11.6239 19.9409C11.44 20.0633 11.1917 20.0134 11.0693 19.8295C10.9469 19.6456 10.9968 19.3973 11.1807 19.2749L12.1984 18.5976C12.5173 18.3854 12.8679 18.2298 13.2348 18.1354C13.2216 17.9479 13.2357 17.763 13.2739 17.5849C13.2811 17.5512 13.2804 17.5162 13.2718 17.4828C13.2164 17.2666 13.199 17.0501 13.2152 16.84L12.9773 16.8382C12.4696 16.8343 11.9719 16.9792 11.5456 17.2549L10.4453 17.9665C10.2598 18.0865 10.0122 18.0333 9.8922 17.8478C9.77222 17.6624 9.82535 17.4147 10.0108 17.2947L11.1111 16.5831C11.6686 16.2226 12.3195 16.0331 12.9834 16.0382L13.4508 16.0418C13.4857 15.9639 13.4743 15.8718 13.4205 15.8047C13.2085 15.5407 13.0631 15.2239 13.0056 14.8833L12.3486 14.8902C11.9045 14.8949 11.469 15.0134 11.0836 15.2342L9.59893 16.0849C9.40725 16.1947 9.16283 16.1283 9.053 15.9367C8.94317 15.745 9.00953 15.5006 9.20121 15.3907L10.6859 14.54C11.1898 14.2513 11.7593 14.0964 12.3401 14.0903L13.0351 14.0829C13.0444 14.0446 13.0549 14.0063 13.0666 13.968L13.3737 12.962C13.4118 12.8372 13.322 12.7103 13.1921 12.6976C12.5634 12.6359 12.048 12.4525 11.6632 12.0535C11.4183 11.7995 11.2524 11.4825 11.1337 11.1173C11.1087 11.0405 11.042 10.9848 10.9627 10.9691C10.0079 10.7802 9.27787 9.74664 9.27787 8.49999C9.27787 7.22629 10.0399 6.17507 11.0251 6.01976C11.1529 5.99962 11.2484 6.1223 11.2202 6.24852C10.5618 9.19054 11.5762 8.74854 12.4 8.38956C12.8699 8.18477 13.2779 8.007 13.2779 8.49999C13.2779 9.45074 12.8533 10.2775 12.2282 10.7003C12.15 10.7532 12.1091 10.8502 12.1426 10.9385C12.2172 11.135 12.3034 11.276 12.4041 11.3804C12.5935 11.5768 12.9121 11.7175 13.5991 11.7357C13.6871 11.7381 13.765 11.6802 13.7907 11.596L14.2481 10.0976C14.2679 10.0327 14.2938 9.96979 14.3255 9.90973C14.4268 9.71765 14.5717 9.57374 14.7383 9.47799C14.6396 8.89971 14.5369 8.41676 14.418 8.01892C14.2818 7.56362 14.129 7.23551 13.9487 7.00655C13.6082 6.57415 13.1134 6.42843 12.2186 6.6224C12.0941 6.64938 11.9746 6.55269 11.9517 6.40644C11.9287 6.2602 12.011 6.11978 12.1354 6.0928C13.092 5.88545 13.7865 6.00779 14.285 6.64076C14.5242 6.94448 14.7032 7.34839 14.8503 7.84041C14.9767 8.26322 15.0829 8.76275 15.182 9.33946Z" fill="white"/>
</g>
<defs>
<filter id="filter0_d_105_29446" x="5" y="4" width="20.8115" height="26" filterUnits="userSpaceOnUse" color-interpolation-filters="sRGB">
<feFlood flood-opacity="0" result="BackgroundImageFix"/>
<feColorMatrix in="SourceAlpha" type="matrix" values="0 0 0 0 0 0 0 0 0 0 0 0 0 0 0 0 0 0 127 0" result="hardAlpha"/>
<feOffset dy="2"/>
<feGaussianBlur stdDeviation="2"/>
<feComposite in2="hardAlpha" operator="out"/>
<feColorMatrix type="matrix" values="0 0 0 0 0 0 0 0 0 0 0 0 0 0 0 0 0 0 0.1 0"/>
<feBlend mode="normal" in2="BackgroundImageFix" result="effect1_dropShadow_105_29446"/>
<feBlend mode="normal" in="SourceGraphic" in2="effect1_dropShadow_105_29446" result="shape"/>
</filter>
</defs>
</svg>

<svg xmlns="http://www.w3.org/2000/svg" width="33" height="34" fill="none"><circle cx="15" cy="15" r="15" fill="#E1E1E1"/><path fill="#E1E1E1" fill-rule="evenodd" d="M29.968 15.995Q30 15.502 30 15c0-8.284-6.716-15-15-15S0 6.716 0 15s6.716 15 15 15a15 15 0 0 0 3.538-.42l-6.459-6.457.691-1.582-1.666-1.666.401-.401-1.576-1.576.531-.531-1.34-1.342L12 14.5l1.5-.5.103-1.361L9.5 8.5l1.669-2.433.629.629.196-.196L13 6l1.164.5 1.537 1.537L16.5 7l.5-.5 1.55-.32 1.572 1.57.483-1.117z" clip-rule="evenodd"/><g filter="url(#a)"><path fill="#fff" fill-rule="evenodd" d="M15.182 9.34q.096-.009.192 0c.099-.577.205-1.077.332-1.5.147-.492.326-.896.565-1.2.498-.632 1.193-.755 2.15-.547.124.027.206.167.183.313-.023.147-.142.243-.267.216-.895-.194-1.39-.048-1.73.385-.18.229-.333.557-.47 1.012-.118.398-.22.88-.32 1.459a1.07 1.07 0 0 1 .49.62l.458 1.499a.2.2 0 0 0 .191.14c.705-.016 1.03-.158 1.221-.357.098-.101.183-.238.256-.427.035-.09-.007-.188-.087-.24-.635-.42-1.068-1.253-1.068-2.213 0-.493.408-.315.878-.11.824.359 1.838.8 1.18-2.141-.029-.127.067-.25.195-.23.985.156 1.747 1.207 1.747 2.481 0 1.236-.718 2.263-1.661 2.464a.22.22 0 0 0-.168.148c-.119.367-.285.686-.531.941-.39.405-.913.587-1.553.647a.208.208 0 0 0-.182.264l.306 1.004q.017.056.03.112l.952.01a3.4 3.4 0 0 1 1.654.45l1.485.85a.4.4 0 0 1-.398.695l-1.484-.85a2.6 2.6 0 0 0-1.265-.345l-.912-.01c-.058.342-.203.66-.416.925a.23.23 0 0 0-.03.239l.723-.006a3.4 3.4 0 0 1 1.872.545l1.1.712a.4.4 0 0 1-.434.671l-1.1-.711a2.6 2.6 0 0 0-1.432-.417l-.493.004q.025.316-.057.64a.2.2 0 0 0-.002.103q.052.241.042.496a3.4 3.4 0 0 1 1.289.517l1.018.677a.4.4 0 1 1-.444.666l-1.017-.677a2.6 2.6 0 0 0-1.036-.404l-.39.974c-.041.104.01.22.109.27.764.393 1.349 1.29 1.753 2.125.34.705-.362 1.357-1.09 1.066-.427-.17-.912.001-1.265.298-.256.215-.59.407-.973.407s-.718-.192-.973-.407c-.353-.297-.838-.469-1.266-.298-.727.291-1.43-.361-1.089-1.067.404-.834.989-1.73 1.753-2.123a.217.217 0 0 0 .109-.27l-.37-.927a2.6 2.6 0 0 0-.8.356l-1.018.677a.4.4 0 0 1-.443-.666l1.017-.677a3.4 3.4 0 0 1 1.037-.463q-.02-.282.039-.55a.2.2 0 0 0-.002-.102 2 2 0 0 1-.057-.643l-.238-.002a2.6 2.6 0 0 0-1.431.417l-1.1.712a.4.4 0 0 1-.435-.672l1.1-.712a3.4 3.4 0 0 1 1.872-.545l.468.004a.23.23 0 0 0-.03-.237 2 2 0 0 1-.415-.922l-.657.007a2.6 2.6 0 0 0-1.265.344l-1.485.85a.4.4 0 0 1-.398-.693l1.485-.851a3.4 3.4 0 0 1 1.654-.45l.695-.007q.015-.057.032-.115l.307-1.006a.208.208 0 0 0-.182-.264c-.629-.062-1.144-.245-1.529-.645-.245-.254-.41-.57-.53-.936a.22.22 0 0 0-.17-.148c-.955-.189-1.685-1.222-1.685-2.469 0-1.274.762-2.325 1.747-2.48.128-.02.223.102.195.229-.658 2.942.356 2.5 1.18 2.14.47-.204.878-.382.878.111 0 .95-.425 1.777-1.05 2.2-.078.053-.119.15-.085.239.074.196.16.337.261.441.19.197.508.337 1.195.356a.196.196 0 0 0 .192-.14l.457-1.498q.03-.098.078-.188c.1-.192.246-.336.412-.432a13 13 0 0 0-.32-1.46c-.136-.454-.289-.782-.47-1.011-.34-.433-.835-.579-1.73-.385-.124.027-.243-.07-.266-.216s.059-.286.183-.313c.957-.208 1.652-.085 2.15.548.24.303.418.707.565 1.2.127.422.233.922.332 1.498" clip-rule="evenodd"/></g><defs><filter id="a" width="20.811" height="26" x="5" y="4" color-interpolation-filters="sRGB" filterUnits="userSpaceOnUse"><feFlood flood-opacity="0" result="BackgroundImageFix"/><feColorMatrix in="SourceAlpha" result="hardAlpha" values="0 0 0 0 0 0 0 0 0 0 0 0 0 0 0 0 0 0 127 0"/><feOffset dy="2"/><feGaussianBlur stdDeviation="2"/><feComposite in2="hardAlpha" operator="out"/><feColorMatrix values="0 0 0 0 0 0 0 0 0 0 0 0 0 0 0 0 0 0 0.1 0"/><feBlend in2="BackgroundImageFix" result="effect1_dropShadow_105_29446"/><feBlend in="SourceGraphic" in2="effect1_dropShadow_105_29446" result="shape"/></filter></defs></svg>
